Newaita-dark/apps/64/gnome-power-statistics.svg

<svg height="64pt" viewBox="0 0 64 64" width="64pt" xmlns="http://www.w3.org/2000/svg" xmlns:xlink="http://www.w3.org/1999/xlink"><linearGradient id="a"><stop offset="0" stop-opacity=".313725"/><stop offset=".222222" stop-opacity=".27451"/><stop offset="1" stop-opacity="0"/></linearGradient><radialGradient id="b" cx="450.90894" cy="189.57936" gradientTransform="matrix(.00000035 -.156265 -.281277 -.0000002 101.615214 127.190671)" gradientUnits="userSpaceOnUse" r="21.166656" xlink:href="#a"/><radialGradient id="c" cx="450.90894" cy="189.57936" gradientTransform="matrix(-.00000035 .156265 .281277 .0000002 -27.524807 -15.054955)" gradientUnits="userSpaceOnUse" r="21.166656" xlink:href="#a"/><radialGradient id="d" cx="450.90894" cy="189.57936" gradientTransform="matrix(-.00000035 -.156265 .281277 -.0000002 -27.524807 127.190671)" gradientUnits="userSpaceOnUse" r="21.166656" xlink:href="#a"/><radialGradient id="e" cx="450.90894" cy="189.57936" gradientTransform="matrix(.00000035 .156265 -.281277 .0000002 101.61521 -15.054956)" gradientUnits="userSpaceOnUse" r="21.166656" xlink:href="#a"/><linearGradient id="f" gradientTransform="matrix(.0267201 0 0 .125012 22.946206 26.877575)" gradientUnits="userSpaceOnUse" x1="255.32306" x2="255.32304" y1="233.5" y2="254.66666"><stop offset="0" stop-opacity=".27451"/><stop offset="1" stop-opacity="0"/></linearGradient><linearGradient id="g" gradientUnits="userSpaceOnUse" x1="254" x2="254" y1="-168.66667" y2="233.5"><stop offset="0" stop-color="#616161"/><stop offset="1" stop-color="#424242"/></linearGradient><linearGradient id="h" gradientUnits="userSpaceOnUse" x1="31.753048" x2="31.753048" y1="5.79220824996" y2="56.067868"><stop offset="0" stop-color="#90a4ae"/><stop offset="1" stop-color="#78909c"/></linearGradient><linearGradient id="i"><stop offset="0" stop-color="#ffa726"/><stop offset="1" stop-color="#ffb74d"/></linearGradient><linearGradient id="j" gradientUnits="userSpaceOnUse" x1="25.13782924996" x2="25.13782924996" xlink:href="#i" y1="56.067868" y2="5.79220950008"/><linearGradient id="k" gradientUnits="userSpaceOnUse" x1="43.660442" x2="43.660442" xlink:href="#i" y1="56.067876" y2="37.54526500003"/><linearGradient id="l" gradientUnits="userSpaceOnUse" x1="48.95261750008" x2="48.95261750008" y1="56.067876" y2="32.25309"><stop offset="0" stop-color="#66bb6a"/><stop offset="1" stop-color="#81c784"/></linearGradient><linearGradient id="m" gradientUnits="userSpaceOnUse" x1="38.36826649992" x2="38.36826649992" y1="56.067876" y2="42.83743849992"><stop offset="0" stop-color="#ef5350"/><stop offset="1" stop-color="#e57373"/></linearGradient><path d="m48.953125 56.066406h5.292969v-2.644531h-5.292969zm0 0" fill="url(#b)"/><path d="m25.136719 56.066406h-5.292969v2.648438h5.292969zm0 0" fill="url(#c)"/><path d="m25.136719 56.066406h-5.292969v-2.644531h5.292969zm0 0" fill="url(#d)"/><path d="m48.953125 56.066406h5.292969v2.648438h-5.292969zm0 0" fill="url(#e)"/><path d="m25.136719 55.40625h23.816406v3.308594h-23.816406zm0 0" fill="url(#f)"/><path d="m254.006994-168.660675c111.051895 0 201.074548 90.022653 201.074548 201.074548s-90.022653 201.074548-201.074548 201.074548c-111.051896 0-201.105796-90.022653-201.105796-201.074548s90.0539-201.074548 201.105796-201.074548zm0 0" fill="url(#g)" stroke="#333" stroke-linecap="round" stroke-width="3" transform="matrix(.125012 0 0 .125012 0 26.877566)"/><path d="m6.617188 31.140625c.109374 13.828125 11.28125 24.925781 25.136718 24.925781 13.855469 0 25.023438-11.097656 25.136719-24.925781-20.003906-14.917969-27.996094 14.625-50.273437 0zm0 0" fill="url(#h)"/><path d="m31.753906 55.902344c-13.925781 0-25.140625-11.210938-25.140625-25.136719 0-.082031.003907-.164063.003907-.246094.128906 13.8125 11.292968 24.890625 25.136718 24.890625s25.003906-11.078125 25.136719-24.890625v.246094c0 13.925781-11.210937 25.136719-25.136719 25.136719zm0 0" fill-opacity=".196078"/><path d="m31.753906 5.957031c-13.925781 0-25.140625 11.210938-25.140625 25.136719 0 .082031.003907.164062.003907.246094.128906-13.808594 11.292968-24.890625 25.136718-24.890625s25.003906 11.082031 25.136719 24.890625c0-.082032 0-.164063 0-.246094 0-13.925781-11.210937-25.136719-25.136719-25.136719zm0 0" fill="#fff" fill-opacity=".392157"/><path d="m31.753906 5.605469c-14.027344 0-25.328125 11.296875-25.328125 25.324219 0 14.027343 11.300781 25.324218 25.328125 25.324218s25.324219-11.296875 25.324219-25.324218c0-14.027344-11.296875-25.324219-25.324219-25.324219zm0 .375c13.824219 0 24.949219 11.125 24.949219 24.949219 0 13.824218-11.125 24.949218-24.949219 24.949218-13.828125 0-24.953125-11.125-24.953125-24.949218 0-13.824219 11.125-24.949219 24.953125-24.949219zm0 0" fill="#212121"/><path d="m22.492188 46.804688 19.84375-15.875-7.9375-2.644532 6.617187-13.230468-19.847656 15.875 7.9375 2.644531zm0 0" fill="url(#j)" fill-rule="evenodd"/><path d="m41.015625 15.054688-19.847656 15.875 1.167969.390624 17.574218-14.0625zm-6.050781 13.417968-.566406 1.132813 6.773437 2.257812 1.164063-.933593zm-6.425782 6.238282-6.046874 12.09375 1.101562-.878907 5.511719-11.027343zm0 0" fill="#fff" fill-opacity=".392157" fill-rule="evenodd"/><path d="m41.015625 16.375-1.65625 1.324219-4.960937 9.921875.851562.285156zm-18.097656 14.476562-1.75 1.402344 7.089843 2.363282.847657-1.703126zm17.667969.816407-16.441407 13.152343-1.652343 3.308594 19.84375-15.875zm0 0" fill-opacity=".235294" fill-rule="evenodd"/><path d="m179.920318 159.401746 158.734842-126.987873-63.493937-21.15423 52.932446-105.833643-158.766089 126.987873 63.493937 21.15423zm0 0" fill="none" stroke="#212121" stroke-width="3" transform="matrix(.125012 0 0 .125012 0 26.877566)"/><path d="m42.335938 37.546875h2.648437c.730469 0 1.320313.589844 1.320313 1.320313v15.878906c0 .730468-.589844 1.320312-1.320313 1.320312h-2.648437c-.730469 0-1.320313-.589844-1.320313-1.320312v-15.878906c0-.730469.589844-1.320313 1.320313-1.320313zm0 0" fill="url(#k)"/><path d="m47.628906 32.253906h2.648438c.730468 0 1.320312.589844 1.320312 1.320313v21.171875c0 .730468-.589844 1.320312-1.320312 1.320312h-2.648438c-.730468 0-1.324218-.589844-1.324218-1.320312v-21.171875c0-.730469.59375-1.320313 1.324218-1.320313zm0 0" fill="url(#l)"/><path d="m37.046875 42.835938h2.644531c.730469 0 1.324219.59375 1.324219 1.324218v10.585938c0 .730468-.59375 1.320312-1.324219 1.320312h-2.644531c-.730469 0-1.324219-.589844-1.324219-1.320312v-10.585938c0-.730468.59375-1.324218 1.324219-1.324218zm0 0" fill="url(#m)"/><path d="m42.335938 37.546875c-.730469 0-1.320313.589844-1.320313 1.320313v.664062c0-.734375.589844-1.324219 1.320313-1.324219h2.648437c.730469 0 1.320313.589844 1.320313 1.324219v-.664062c0-.730469-.589844-1.320313-1.320313-1.320313zm0 0" fill="#fff" fill-opacity=".392157"/><path d="m47.628906 32.253906c-.730468 0-1.324218.589844-1.324218 1.320313v.664062c0-.734375.59375-1.324219 1.324218-1.324219h2.648438c.730468 0 1.320312.589844 1.320312 1.324219v-.664062c0-.730469-.589844-1.320313-1.320312-1.320313zm0 0" fill="#fff" fill-opacity=".392157"/><path d="m37.046875 42.835938c-.734375 0-1.324219.589843-1.324219 1.324218v.660156c0-.730468.589844-1.320312 1.324219-1.320312h2.644531c.734375 0 1.324219.589844 1.324219 1.320312v-.660156c0-.734375-.589844-1.324218-1.324219-1.324218zm0 0" fill="#fff" fill-opacity=".392157"/><path d="m44.984375 56.066406c.730469 0 1.320313-.589844 1.320313-1.320312v-.664063c0 .734375-.589844 1.324219-1.320313 1.324219h-2.648437c-.730469 0-1.320313-.589844-1.320313-1.324219v.664063c0 .730468.589844 1.320312 1.320313 1.320312zm0 0" fill-opacity=".235294"/><path d="m39.691406 56.066406c.734375 0 1.324219-.589844 1.324219-1.320312v-.664063c0 .734375-.589844 1.324219-1.324219 1.324219h-2.644531c-.734375 0-1.324219-.589844-1.324219-1.324219v.664063c0 .730468.589844 1.320312 1.324219 1.320312zm0 0" fill-opacity=".235294"/><path d="m50.277344 56.066406c.730468 0 1.320312-.589844 1.320312-1.320312v-.664063c0 .734375-.589844 1.324219-1.320312 1.324219h-2.648438c-.730468 0-1.324218-.589844-1.324218-1.324219v.664063c0 .730468.59375 1.320312 1.324218 1.320312zm0 0" fill-opacity=".235294"/><g stroke-linecap="round" stroke-width="3"><path d="m338.65516 85.346318h21.185477c5.843192 0 10.561491 4.7183 10.561491 10.561492v127.01912c0 5.843192-4.718299 10.561491-10.561491 10.561491h-21.185477c-5.843192 0-10.561491-4.718299-10.561491-10.561491v-127.01912c0-5.843192 4.718299-10.561492 10.561491-10.561492zm0 0" fill="none" stroke="#212121" stroke-linejoin="round" transform="matrix(.125012 0 0 .125012 0 26.877566)"/><path d="m380.994867 43.006612h21.185477c5.843192 0 10.561491 4.718299 10.561491 10.561491v169.358827c0 5.843192-4.718299 10.561491-10.561491 10.561491h-21.185477c-5.843192 0-10.592739-4.718299-10.592739-10.561491v-169.358827c0-5.843192 4.749547-10.561491 10.592739-10.561491zm0 0" fill="none" stroke="#212121" stroke-linejoin="round" transform="matrix(.125012 0 0 .125012 0 26.877566)"/><path d="m296.3467 127.654778h21.15423c5.843192 0 10.592739 4.749547 10.592739 10.592739v84.679413c0 5.843192-4.749547 10.561491-10.592739 10.561491h-21.15423c-5.843192 0-10.592738-4.718299-10.592738-10.561491v-84.679413c0-5.843192 4.749546-10.592739 10.592738-10.592739zm0 0" fill="none" stroke="#212121" stroke-linejoin="round" transform="matrix(.125012 0 0 .125012 0 26.877566)"/></g></svg>

<?xml version="1.0" encoding="UTF-8"?>
<svg xmlns="http://www.w3.org/2000/svg" xmlns:xlink="http://www.w3.org/1999/xlink" width="64pt" height="64pt" viewBox="0 0 64 64" version="1.1">
<defs>
<radialGradient id="radial0" gradientUnits="userSpaceOnUse" cx="450.90894" cy="189.57936" fx="450.90894" fy="189.57936" r="21.166656" gradientTransform="matrix(0.000000348341,-0.156265,-0.281277,-0.000000203077,101.615214,127.190671)">
<stop offset="0" style="stop-color:rgb(0%,0%,0%);stop-opacity:0.313725;"/>
<stop offset="0.222222" style="stop-color:rgb(0%,0%,0%);stop-opacity:0.27451;"/>
<stop offset="1" style="stop-color:rgb(0%,0%,0%);stop-opacity:0;"/>
</radialGradient>
<radialGradient id="radial1" gradientUnits="userSpaceOnUse" cx="450.90894" cy="189.57936" fx="450.90894" fy="189.57936" r="21.166656" gradientTransform="matrix(-0.000000348341,0.156265,0.281277,0.000000203077,-27.524807,-15.054955)">
<stop offset="0" style="stop-color:rgb(0%,0%,0%);stop-opacity:0.313725;"/>
<stop offset="0.222222" style="stop-color:rgb(0%,0%,0%);stop-opacity:0.27451;"/>
<stop offset="1" style="stop-color:rgb(0%,0%,0%);stop-opacity:0;"/>
</radialGradient>
<radialGradient id="radial2" gradientUnits="userSpaceOnUse" cx="450.90894" cy="189.57936" fx="450.90894" fy="189.57936" r="21.166656" gradientTransform="matrix(-0.000000348341,-0.156265,0.281277,-0.000000203077,-27.524807,127.190671)">
<stop offset="0" style="stop-color:rgb(0%,0%,0%);stop-opacity:0.313725;"/>
<stop offset="0.222222" style="stop-color:rgb(0%,0%,0%);stop-opacity:0.27451;"/>
<stop offset="1" style="stop-color:rgb(0%,0%,0%);stop-opacity:0;"/>
</radialGradient>
<radialGradient id="radial3" gradientUnits="userSpaceOnUse" cx="450.90894" cy="189.57936" fx="450.90894" fy="189.57936" r="21.166656" gradientTransform="matrix(0.000000348341,0.156265,-0.281277,0.000000203077,101.61521,-15.054956)">
<stop offset="0" style="stop-color:rgb(0%,0%,0%);stop-opacity:0.313725;"/>
<stop offset="0.222222" style="stop-color:rgb(0%,0%,0%);stop-opacity:0.27451;"/>
<stop offset="1" style="stop-color:rgb(0%,0%,0%);stop-opacity:0;"/>
</radialGradient>
<linearGradient id="linear0" gradientUnits="userSpaceOnUse" x1="255.32306" y1="233.5" x2="255.32304" y2="254.66666" gradientTransform="matrix(0.0267201,0,0,0.125012,22.946206,26.877575)">
<stop offset="0" style="stop-color:rgb(0%,0%,0%);stop-opacity:0.27451;"/>
<stop offset="1" style="stop-color:rgb(0%,0%,0%);stop-opacity:0;"/>
</linearGradient>
<linearGradient id="linear1" gradientUnits="userSpaceOnUse" x1="254" y1="-168.66667" x2="254" y2="233.5" >
<stop offset="0" style="stop-color:rgb(38.039216%,38.039216%,38.039216%);stop-opacity:1;"/>
<stop offset="1" style="stop-color:rgb(25.882353%,25.882353%,25.882353%);stop-opacity:1;"/>
</linearGradient>
<linearGradient id="linear2" gradientUnits="userSpaceOnUse" x1="254" y1="-168.66667" x2="254" y2="233.5" gradientTransform="matrix(0.125012,0,0,0.125012,0,26.877566)">
<stop offset="0" style="stop-color:rgb(56.470588%,64.313725%,68.235294%);stop-opacity:1;"/>
<stop offset="1" style="stop-color:rgb(47.058824%,56.470588%,61.176471%);stop-opacity:1;"/>
</linearGradient>
<linearGradient id="linear3" gradientUnits="userSpaceOnUse" x1="201.08333" y1="233.5" x2="201.08333" y2="-168.66666" gradientTransform="matrix(0.125012,0,0,0.125012,0,26.877566)">
<stop offset="0" style="stop-color:rgb(100%,65.490196%,14.901961%);stop-opacity:1;"/>
<stop offset="1" style="stop-color:rgb(100%,71.764706%,30.196078%);stop-opacity:1;"/>
</linearGradient>
<linearGradient id="linear4" gradientUnits="userSpaceOnUse" x1="381" y1="233.5" x2="381" y2="85.333336" gradientTransform="matrix(0.125012,0,0,0.125012,-3.96913,26.877574)">
<stop offset="0" style="stop-color:rgb(100%,65.490196%,14.901961%);stop-opacity:1;"/>
<stop offset="1" style="stop-color:rgb(100%,71.764706%,30.196078%);stop-opacity:1;"/>
</linearGradient>
<linearGradient id="linear5" gradientUnits="userSpaceOnUse" x1="423.33334" y1="233.5" x2="423.33334" y2="43" gradientTransform="matrix(0.125012,0,0,0.125012,-3.96913,26.877574)">
<stop offset="0" style="stop-color:rgb(40%,73.333333%,41.568627%);stop-opacity:1;"/>
<stop offset="1" style="stop-color:rgb(50.588235%,78.039216%,51.764706%);stop-opacity:1;"/>
</linearGradient>
<linearGradient id="linear6" gradientUnits="userSpaceOnUse" x1="338.66666" y1="233.5" x2="338.66666" y2="127.66666" gradientTransform="matrix(0.125012,0,0,0.125012,-3.96913,26.877574)">
<stop offset="0" style="stop-color:rgb(93.72549%,32.54902%,31.372549%);stop-opacity:1;"/>
<stop offset="1" style="stop-color:rgb(89.803922%,45.098039%,45.098039%);stop-opacity:1;"/>
</linearGradient>
</defs>
<g id="surface1">
<path style=" stroke:none;fill-rule:nonzero;fill:url(#radial0);" d="M 48.953125 56.066406 L 54.246094 56.066406 L 54.246094 53.421875 L 48.953125 53.421875 Z M 48.953125 56.066406 "/>
<path style=" stroke:none;fill-rule:nonzero;fill:url(#radial1);" d="M 25.136719 56.066406 L 19.84375 56.066406 L 19.84375 58.714844 L 25.136719 58.714844 Z M 25.136719 56.066406 "/>
<path style=" stroke:none;fill-rule:nonzero;fill:url(#radial2);" d="M 25.136719 56.066406 L 19.84375 56.066406 L 19.84375 53.421875 L 25.136719 53.421875 Z M 25.136719 56.066406 "/>
<path style=" stroke:none;fill-rule:nonzero;fill:url(#radial3);" d="M 48.953125 56.066406 L 54.246094 56.066406 L 54.246094 58.714844 L 48.953125 58.714844 Z M 48.953125 56.066406 "/>
<path style=" stroke:none;fill-rule:nonzero;fill:url(#linear0);" d="M 25.136719 55.40625 L 48.953125 55.40625 L 48.953125 58.714844 L 25.136719 58.714844 Z M 25.136719 55.40625 "/>
<path style="fill-rule:nonzero;fill:url(#linear1);stroke-width:3;stroke-linecap:round;stroke-linejoin:miter;stroke:rgb(20%,20%,20%);stroke-opacity:1;stroke-miterlimit:4;" d="M 254.006994 -168.660675 C 365.058889 -168.660675 455.081542 -78.638022 455.081542 32.413873 C 455.081542 143.465768 365.058889 233.488421 254.006994 233.488421 C 142.955098 233.488421 52.901198 143.465768 52.901198 32.413873 C 52.901198 -78.638022 142.955098 -168.660675 254.006994 -168.660675 Z M 254.006994 -168.660675 " transform="matrix(0.125012,0,0,0.125012,0,26.877566)"/>
<path style=" stroke:none;fill-rule:nonzero;fill:url(#linear2);" d="M 6.617188 31.140625 C 6.726562 44.96875 17.898438 56.066406 31.753906 56.066406 C 45.609375 56.066406 56.777344 44.96875 56.890625 31.140625 C 36.886719 16.222656 28.894531 45.765625 6.617188 31.140625 Z M 6.617188 31.140625 "/>
<path style=" stroke:none;fill-rule:nonzero;fill:rgb(0%,0%,0%);fill-opacity:0.196078;" d="M 31.753906 55.902344 C 17.828125 55.902344 6.613281 44.691406 6.613281 30.765625 C 6.613281 30.683594 6.617188 30.601562 6.617188 30.519531 C 6.746094 44.332031 17.910156 55.410156 31.753906 55.410156 C 45.597656 55.410156 56.757812 44.332031 56.890625 30.519531 C 56.890625 30.601562 56.890625 30.683594 56.890625 30.765625 C 56.890625 44.691406 45.679688 55.902344 31.753906 55.902344 Z M 31.753906 55.902344 "/>
<path style=" stroke:none;fill-rule:nonzero;fill:rgb(100%,100%,100%);fill-opacity:0.392157;" d="M 31.753906 5.957031 C 17.828125 5.957031 6.613281 17.167969 6.613281 31.09375 C 6.613281 31.175781 6.617188 31.257812 6.617188 31.339844 C 6.746094 17.53125 17.910156 6.449219 31.753906 6.449219 C 45.597656 6.449219 56.757812 17.53125 56.890625 31.339844 C 56.890625 31.257812 56.890625 31.175781 56.890625 31.09375 C 56.890625 17.167969 45.679688 5.957031 31.753906 5.957031 Z M 31.753906 5.957031 "/>
<path style=" stroke:none;fill-rule:nonzero;fill:rgb(12.941176%,12.941176%,12.941176%);fill-opacity:1;" d="M 31.753906 5.605469 C 17.726562 5.605469 6.425781 16.902344 6.425781 30.929688 C 6.425781 44.957031 17.726562 56.253906 31.753906 56.253906 C 45.78125 56.253906 57.078125 44.957031 57.078125 30.929688 C 57.078125 16.902344 45.78125 5.605469 31.753906 5.605469 Z M 31.753906 5.980469 C 45.578125 5.980469 56.703125 17.105469 56.703125 30.929688 C 56.703125 44.753906 45.578125 55.878906 31.753906 55.878906 C 17.925781 55.878906 6.800781 44.753906 6.800781 30.929688 C 6.800781 17.105469 17.925781 5.980469 31.753906 5.980469 Z M 31.753906 5.980469 "/>
<path style=" stroke:none;fill-rule:evenodd;fill:url(#linear3);" d="M 22.492188 46.804688 L 42.335938 30.929688 L 34.398438 28.285156 L 41.015625 15.054688 L 21.167969 30.929688 L 29.105469 33.574219 Z M 22.492188 46.804688 "/>
<path style=" stroke:none;fill-rule:evenodd;fill:rgb(100%,100%,100%);fill-opacity:0.392157;" d="M 41.015625 15.054688 L 21.167969 30.929688 L 22.335938 31.320312 L 39.910156 17.257812 Z M 34.964844 28.472656 L 34.398438 29.605469 L 41.171875 31.863281 L 42.335938 30.929688 Z M 28.539062 34.710938 L 22.492188 46.804688 L 23.59375 45.925781 L 29.105469 34.898438 Z M 28.539062 34.710938 "/>
<path style=" stroke:none;fill-rule:evenodd;fill:rgb(0%,0%,0%);fill-opacity:0.235294;" d="M 41.015625 16.375 L 39.359375 17.699219 L 34.398438 27.621094 L 35.25 27.90625 Z M 22.917969 30.851562 L 21.167969 32.253906 L 28.257812 34.617188 L 29.105469 32.914062 Z M 40.585938 31.667969 L 24.144531 44.820312 L 22.492188 48.128906 L 42.335938 32.253906 Z M 40.585938 31.667969 "/>
<path style="fill:none;stroke-width:3;stroke-linecap:butt;stroke-linejoin:miter;stroke:rgb(12.941176%,12.941176%,12.941176%);stroke-opacity:1;stroke-miterlimit:4;" d="M 179.920318 159.401746 L 338.65516 32.413873 L 275.161223 11.259643 L 328.093669 -94.574 L 169.32758 32.413873 L 232.821517 53.568103 Z M 179.920318 159.401746 " transform="matrix(0.125012,0,0,0.125012,0,26.877566)"/>
<path style=" stroke:none;fill-rule:nonzero;fill:url(#linear4);" d="M 42.335938 37.546875 L 44.984375 37.546875 C 45.714844 37.546875 46.304688 38.136719 46.304688 38.867188 L 46.304688 54.746094 C 46.304688 55.476562 45.714844 56.066406 44.984375 56.066406 L 42.335938 56.066406 C 41.605469 56.066406 41.015625 55.476562 41.015625 54.746094 L 41.015625 38.867188 C 41.015625 38.136719 41.605469 37.546875 42.335938 37.546875 Z M 42.335938 37.546875 "/>
<path style=" stroke:none;fill-rule:nonzero;fill:url(#linear5);" d="M 47.628906 32.253906 L 50.277344 32.253906 C 51.007812 32.253906 51.597656 32.84375 51.597656 33.574219 L 51.597656 54.746094 C 51.597656 55.476562 51.007812 56.066406 50.277344 56.066406 L 47.628906 56.066406 C 46.898438 56.066406 46.304688 55.476562 46.304688 54.746094 L 46.304688 33.574219 C 46.304688 32.84375 46.898438 32.253906 47.628906 32.253906 Z M 47.628906 32.253906 "/>
<path style=" stroke:none;fill-rule:nonzero;fill:url(#linear6);" d="M 37.046875 42.835938 L 39.691406 42.835938 C 40.421875 42.835938 41.015625 43.429688 41.015625 44.160156 L 41.015625 54.746094 C 41.015625 55.476562 40.421875 56.066406 39.691406 56.066406 L 37.046875 56.066406 C 36.316406 56.066406 35.722656 55.476562 35.722656 54.746094 L 35.722656 44.160156 C 35.722656 43.429688 36.316406 42.835938 37.046875 42.835938 Z M 37.046875 42.835938 "/>
<path style=" stroke:none;fill-rule:nonzero;fill:rgb(100%,100%,100%);fill-opacity:0.392157;" d="M 42.335938 37.546875 C 41.605469 37.546875 41.015625 38.136719 41.015625 38.867188 L 41.015625 39.53125 C 41.015625 38.796875 41.605469 38.207031 42.335938 38.207031 L 44.984375 38.207031 C 45.714844 38.207031 46.304688 38.796875 46.304688 39.53125 L 46.304688 38.867188 C 46.304688 38.136719 45.714844 37.546875 44.984375 37.546875 Z M 42.335938 37.546875 "/>
<path style=" stroke:none;fill-rule:nonzero;fill:rgb(100%,100%,100%);fill-opacity:0.392157;" d="M 47.628906 32.253906 C 46.898438 32.253906 46.304688 32.84375 46.304688 33.574219 L 46.304688 34.238281 C 46.304688 33.503906 46.898438 32.914062 47.628906 32.914062 L 50.277344 32.914062 C 51.007812 32.914062 51.597656 33.503906 51.597656 34.238281 L 51.597656 33.574219 C 51.597656 32.84375 51.007812 32.253906 50.277344 32.253906 Z M 47.628906 32.253906 "/>
<path style=" stroke:none;fill-rule:nonzero;fill:rgb(100%,100%,100%);fill-opacity:0.392157;" d="M 37.046875 42.835938 C 36.3125 42.835938 35.722656 43.425781 35.722656 44.160156 L 35.722656 44.820312 C 35.722656 44.089844 36.3125 43.5 37.046875 43.5 L 39.691406 43.5 C 40.425781 43.5 41.015625 44.089844 41.015625 44.820312 L 41.015625 44.160156 C 41.015625 43.425781 40.425781 42.835938 39.691406 42.835938 Z M 37.046875 42.835938 "/>
<path style=" stroke:none;fill-rule:nonzero;fill:rgb(0%,0%,0%);fill-opacity:0.235294;" d="M 44.984375 56.066406 C 45.714844 56.066406 46.304688 55.476562 46.304688 54.746094 L 46.304688 54.082031 C 46.304688 54.816406 45.714844 55.40625 44.984375 55.40625 L 42.335938 55.40625 C 41.605469 55.40625 41.015625 54.816406 41.015625 54.082031 L 41.015625 54.746094 C 41.015625 55.476562 41.605469 56.066406 42.335938 56.066406 Z M 44.984375 56.066406 "/>
<path style=" stroke:none;fill-rule:nonzero;fill:rgb(0%,0%,0%);fill-opacity:0.235294;" d="M 39.691406 56.066406 C 40.425781 56.066406 41.015625 55.476562 41.015625 54.746094 L 41.015625 54.082031 C 41.015625 54.816406 40.425781 55.40625 39.691406 55.40625 L 37.046875 55.40625 C 36.3125 55.40625 35.722656 54.816406 35.722656 54.082031 L 35.722656 54.746094 C 35.722656 55.476562 36.3125 56.066406 37.046875 56.066406 Z M 39.691406 56.066406 "/>
<path style=" stroke:none;fill-rule:nonzero;fill:rgb(0%,0%,0%);fill-opacity:0.235294;" d="M 50.277344 56.066406 C 51.007812 56.066406 51.597656 55.476562 51.597656 54.746094 L 51.597656 54.082031 C 51.597656 54.816406 51.007812 55.40625 50.277344 55.40625 L 47.628906 55.40625 C 46.898438 55.40625 46.304688 54.816406 46.304688 54.082031 L 46.304688 54.746094 C 46.304688 55.476562 46.898438 56.066406 47.628906 56.066406 Z M 50.277344 56.066406 "/>
<path style="fill:none;stroke-width:3;stroke-linecap:round;stroke-linejoin:round;stroke:rgb(12.941176%,12.941176%,12.941176%);stroke-opacity:1;stroke-miterlimit:4;" d="M 338.65516 85.346318 L 359.840637 85.346318 C 365.683829 85.346318 370.402128 90.064618 370.402128 95.90781 L 370.402128 222.92693 C 370.402128 228.770122 365.683829 233.488421 359.840637 233.488421 L 338.65516 233.488421 C 332.811968 233.488421 328.093669 228.770122 328.093669 222.92693 L 328.093669 95.90781 C 328.093669 90.064618 332.811968 85.346318 338.65516 85.346318 Z M 338.65516 85.346318 " transform="matrix(0.125012,0,0,0.125012,0,26.877566)"/>
<path style="fill:none;stroke-width:3;stroke-linecap:round;stroke-linejoin:round;stroke:rgb(12.941176%,12.941176%,12.941176%);stroke-opacity:1;stroke-miterlimit:4;" d="M 380.994867 43.006612 L 402.180344 43.006612 C 408.023536 43.006612 412.741835 47.724911 412.741835 53.568103 L 412.741835 222.92693 C 412.741835 228.770122 408.023536 233.488421 402.180344 233.488421 L 380.994867 233.488421 C 375.151675 233.488421 370.402128 228.770122 370.402128 222.92693 L 370.402128 53.568103 C 370.402128 47.724911 375.151675 43.006612 380.994867 43.006612 Z M 380.994867 43.006612 " transform="matrix(0.125012,0,0,0.125012,0,26.877566)"/>
<path style="fill:none;stroke-width:3;stroke-linecap:round;stroke-linejoin:round;stroke:rgb(12.941176%,12.941176%,12.941176%);stroke-opacity:1;stroke-miterlimit:4;" d="M 296.3467 127.654778 L 317.50093 127.654778 C 323.344122 127.654778 328.093669 132.404325 328.093669 138.247517 L 328.093669 222.92693 C 328.093669 228.770122 323.344122 233.488421 317.50093 233.488421 L 296.3467 233.488421 C 290.503508 233.488421 285.753962 228.770122 285.753962 222.92693 L 285.753962 138.247517 C 285.753962 132.404325 290.503508 127.654778 296.3467 127.654778 Z M 296.3467 127.654778 " transform="matrix(0.125012,0,0,0.125012,0,26.877566)"/>
</g>
</svg>
